static/img/kroki/0b38e859a44f5054c2c2dcaed59b65d8.svg

<?xml version="1.0" encoding="us-ascii" standalone="no"?><svg xmlns="http://www.w3.org/2000/svg" xmlns:xlink="http://www.w3.org/1999/xlink" contentStyleType="text/css" height="919px" preserveAspectRatio="none" style="width:558px;height:919px;" version="1.1" viewBox="0 0 558 919" width="558px" zoomAndPan="magnify"><defs/><g><!--class azure_express_route_ports_location--><g id="elem_azure_express_route_ports_location"><rect codeLine="22" fill="#3D176E" height="152.9766" id="azure_express_route_ports_location" rx="2.5" ry="2.5" style="stroke:#000D19;stroke-width:0.5;" width="544" x="7" y="599.55"/><ellipse cx="120.75" cy="619.4445" fill="#ADD1B2" rx="11" ry="11" style="stroke:#181818;stroke-width:1.0;"/><path d="M123.7188,625.0852 Q123.1406,625.382 122.5,625.5227 Q121.8594,625.6789 121.1563,625.6789 Q118.6563,625.6789 117.3281,624.0383 Q116.0156,622.382 116.0156,619.257 Q116.0156,616.132 117.3281,614.4758 Q118.6563,612.8195 121.1563,612.8195 Q121.8594,612.8195 122.5,612.9758 Q123.1563,613.132 123.7188,613.4289 L123.7188,616.1477 Q123.0938,615.5695 122.5,615.3039 Q121.9063,615.0227 121.2813,615.0227 Q119.9375,615.0227 119.25,616.1008 Q118.5625,617.1633 118.5625,619.257 Q118.5625,621.3508 119.25,622.4289 Q119.9375,623.4914 121.2813,623.4914 Q121.9063,623.4914 122.5,623.2258 Q123.0938,622.9445 123.7188,622.3664 L123.7188,625.0852 Z " fill="#000000"/><text fill="#D9B8FF" font-family="Helvetica" font-size="17" lengthAdjust="spacing" textLength="298" x="146.25" y="625.3298">azure_express_route_ports_location</text><line style="stroke:#000D19;stroke-width:0.5;" x1="8" x2="550" y1="639.3391" y2="639.3391"/><text fill="#D9B8FF" font-family="sans-serif" font-size="14" font-weight="bold" lengthAdjust="spacing" textLength="64" x="18" y="661.3342">address</text><text fill="#D9B8FF" font-family="sans-serif" font-size="14" lengthAdjust="spacing" textLength="48" x="82" y="661.3342">: string</text><text fill="#D9B8FF" font-family="sans-serif" font-size="14" font-weight="bold" lengthAdjust="spacing" textLength="167" x="18" y="687.6311">available_bandwidths</text><text fill="#D9B8FF" font-family="sans-serif" font-size="14" lengthAdjust="spacing" textLength="355" x="185" y="687.6311">: azure_express_route_ports_location_bandwidths[]</text><text fill="#D9B8FF" font-family="sans-serif" font-size="14" font-weight="bold" lengthAdjust="spacing" textLength="59" x="18" y="713.9279">contact</text><text fill="#D9B8FF" font-family="sans-serif" font-size="14" lengthAdjust="spacing" textLength="48" x="77" y="713.9279">: string</text><text fill="#D9B8FF" font-family="sans-serif" font-size="14" font-weight="bold" lengthAdjust="spacing" textLength="144" x="18" y="740.2248">provisioning_state</text><text fill="#D9B8FF" font-family="sans-serif" font-size="14" lengthAdjust="spacing" textLength="48" x="162" y="740.2248">: string</text></g><!--class azure_express_route_ports_location_bandwidths--><g id="elem_azure_express_route_ports_location_bandwidths"><rect codeLine="28" fill="#3D176E" height="100.3828" id="azure_express_route_ports_location_bandwidths" rx="2.5" ry="2.5" style="stroke:#000D19;stroke-width:0.5;" width="446" x="56" y="812.53"/><ellipse cx="71" cy="832.4245" fill="#ADD1B2" rx="11" ry="11" style="stroke:#181818;stroke-width:1.0;"/><path d="M73.9688,838.0652 Q73.3906,838.362 72.75,838.5027 Q72.1094,838.6589 71.4063,838.6589 Q68.9063,838.6589 67.5781,837.0183 Q66.2656,835.362 66.2656,832.237 Q66.2656,829.112 67.5781,827.4558 Q68.9063,825.7995 71.4063,825.7995 Q72.1094,825.7995 72.75,825.9558 Q73.4063,826.112 73.9688,826.4089 L73.9688,829.1277 Q73.3438,828.5495 72.75,828.2839 Q72.1563,828.0027 71.5313,828.0027 Q70.1875,828.0027 69.5,829.0808 Q68.8125,830.1433 68.8125,832.237 Q68.8125,834.3308 69.5,835.4089 Q70.1875,836.4714 71.5313,836.4714 Q72.1563,836.4714 72.75,836.2058 Q73.3438,835.9245 73.9688,835.3464 L73.9688,838.0652 Z " fill="#000000"/><text fill="#D9B8FF" font-family="Helvetica" font-size="17" lengthAdjust="spacing" textLength="404" x="90" y="838.3098">azure_express_route_ports_location_bandwidths</text><line style="stroke:#000D19;stroke-width:0.5;" x1="57" x2="501" y1="852.3191" y2="852.3191"/><text fill="#D9B8FF" font-family="sans-serif" font-size="14" font-weight="bold" lengthAdjust="spacing" textLength="89" x="67" y="874.3142">offer_name</text><text fill="#D9B8FF" font-family="sans-serif" font-size="14" lengthAdjust="spacing" textLength="48" x="156" y="874.3142">: string</text><text fill="#D9B8FF" font-family="sans-serif" font-size="14" font-weight="bold" lengthAdjust="spacing" textLength="109" x="67" y="900.6111">value_in_gbps</text><text fill="#D9B8FF" font-family="sans-serif" font-size="14" lengthAdjust="spacing" textLength="44" x="176" y="900.6111">: int64</text></g><!--class azure_resource--><g id="elem_azure_resource"><rect codeLine="32" fill="#3D176E" height="39.7891" id="azure_resource" rx="2.5" ry="2.5" style="stroke:#000D19;stroke-width:0.5;" width="168" x="195" y="438.76"/><ellipse cx="210" cy="458.6545" fill="#ADD1B2" rx="11" ry="11" style="stroke:#181818;stroke-width:1.0;"/><path d="M212.9688,464.2952 Q212.3906,464.592 211.75,464.7327 Q211.1094,464.8889 210.4063,464.8889 Q207.9063,464.8889 206.5781,463.2483 Q205.2656,461.592 205.2656,458.467 Q205.2656,455.342 206.5781,453.6858 Q207.9063,452.0295 210.4063,452.0295 Q211.1094,452.0295 211.75,452.1858 Q212.4063,452.342 212.9688,452.6389 L212.9688,455.3577 Q212.3438,454.7795 211.75,454.5139 Q211.1563,454.2327 210.5313,454.2327 Q209.1875,454.2327 208.5,455.3108 Q207.8125,456.3733 207.8125,458.467 Q207.8125,460.5608 208.5,461.6389 Q209.1875,462.7014 210.5313,462.7014 Q211.1563,462.7014 211.75,462.4358 Q212.3438,462.1545 212.9688,461.5764 L212.9688,464.2952 Z " fill="#000000"/><text fill="#D9B8FF" font-family="Helvetica" font-size="17" lengthAdjust="spacing" textLength="126" x="229" y="464.5398">azure_resource</text></g><!--class resource--><g id="elem_resource"><rect codeLine="34" fill="#3D176E" height="310.7578" id="resource" rx="2.5" ry="2.5" style="stroke:#000D19;stroke-width:0.5;" width="227" x="165.5" y="7"/><ellipse cx="234.25" cy="26.8945" fill="#ADD1B2" rx="11" ry="11" style="stroke:#181818;stroke-width:1.0;"/><path d="M237.2188,32.5352 Q236.6406,32.832 236,32.9727 Q235.3594,33.1289 234.6563,33.1289 Q232.1563,33.1289 230.8281,31.4883 Q229.5156,29.832 229.5156,26.707 Q229.5156,23.582 230.8281,21.9258 Q232.1563,20.2695 234.6563,20.2695 Q235.3594,20.2695 236,20.4258 Q236.6563,20.582 237.2188,20.8789 L237.2188,23.5977 Q236.5938,23.0195 236,22.7539 Q235.4063,22.4727 234.7813,22.4727 Q233.4375,22.4727 232.75,23.5508 Q232.0625,24.6133 232.0625,26.707 Q232.0625,28.8008 232.75,29.8789 Q233.4375,30.9414 234.7813,30.9414 Q235.4063,30.9414 236,30.6758 Q236.5938,30.3945 237.2188,29.8164 L237.2188,32.5352 Z " fill="#000000"/><text fill="#D9B8FF" font-family="Helvetica" font-size="17" lengthAdjust="spacing" textLength="71" x="259.75" y="32.7798">resource</text><line style="stroke:#000D19;stroke-width:0.5;" x1="166.5" x2="391.5" y1="46.7891" y2="46.7891"/><text fill="#D9B8FF" font-family="sans-serif" font-size="14" font-weight="bold" lengthAdjust="spacing" textLength="29" x="176.5" y="68.7842">age</text><text fill="#D9B8FF" font-family="sans-serif" font-size="14" lengthAdjust="spacing" textLength="66" x="205.5" y="68.7842">: duration</text><text fill="#D9B8FF" font-family="sans-serif" font-size="14" font-weight="bold" lengthAdjust="spacing" textLength="43" x="176.5" y="95.0811">atime</text><text fill="#D9B8FF" font-family="sans-serif" font-size="14" lengthAdjust="spacing" textLength="70" x="219.5" y="95.0811">: datetime</text><text fill="#D9B8FF" font-family="sans-serif" font-size="14" font-weight="bold" lengthAdjust="spacing" textLength="43" x="176.5" y="121.3779">ctime</text><text fill="#D9B8FF" font-family="sans-serif" font-size="14" lengthAdjust="spacing" textLength="70" x="219.5" y="121.3779">: datetime</text><text fill="#D9B8FF" font-family="sans-serif" font-size="14" font-weight="bold" lengthAdjust="spacing" textLength="14" x="176.5" y="147.6748">id</text><text fill="#D9B8FF" font-family="sans-serif" font-size="14" lengthAdjust="spacing" textLength="48" x="190.5" y="147.6748">: string</text><text fill="#D9B8FF" font-family="sans-serif" font-size="14" font-weight="bold" lengthAdjust="spacing" textLength="33" x="176.5" y="173.9717">kind</text><text fill="#D9B8FF" font-family="sans-serif" font-size="14" lengthAdjust="spacing" textLength="48" x="209.5" y="173.9717">: string</text><text fill="#D9B8FF" font-family="sans-serif" font-size="14" font-weight="bold" lengthAdjust="spacing" textLength="90" x="176.5" y="200.2686">last_access</text><text fill="#D9B8FF" font-family="sans-serif" font-size="14" lengthAdjust="spacing" textLength="66" x="266.5" y="200.2686">: duration</text><text fill="#D9B8FF" font-family="sans-serif" font-size="14" font-weight="bold" lengthAdjust="spacing" textLength="90" x="176.5" y="226.5654">last_update</text><text fill="#D9B8FF" font-family="sans-serif" font-size="14" lengthAdjust="spacing" textLength="66" x="266.5" y="226.5654">: duration</text><text fill="#D9B8FF" font-family="sans-serif" font-size="14" font-weight="bold" lengthAdjust="spacing" textLength="48" x="176.5" y="252.8623">mtime</text><text fill="#D9B8FF" font-family="sans-serif" font-size="14" lengthAdjust="spacing" textLength="70" x="224.5" y="252.8623">: datetime</text><text fill="#D9B8FF" font-family="sans-serif" font-size="14" font-weight="bold" lengthAdjust="spacing" textLength="43" x="176.5" y="279.1592">name</text><text fill="#D9B8FF" font-family="sans-serif" font-size="14" lengthAdjust="spacing" textLength="48" x="219.5" y="279.1592">: string</text><text fill="#D9B8FF" font-family="sans-serif" font-size="14" font-weight="bold" lengthAdjust="spacing" textLength="34" x="176.5" y="305.4561">tags</text><text fill="#D9B8FF" font-family="sans-serif" font-size="14" lengthAdjust="spacing" textLength="171" x="210.5" y="305.4561">: dictionary[string, string]</text></g><!--link azure_express_route_ports_location to azure_express_route_ports_location_bandwidths--><g id="link_azure_express_route_ports_location_azure_express_route_ports_location_bandwidths"><path codeLine="46" d="M279,752.95 C279,772.95 279,788.01 279,806.22 " fill="none" id="azure_express_route_ports_location-to-azure_express_route_ports_location_bandwidths" style="stroke:#FFAF37;stroke-width:2.0;"/><polygon fill="#FFAF37" points="279,812.22,283,803.22,279,807.22,275,803.22,279,812.22" style="stroke:#FFAF37;stroke-width:2.0;"/></g><!--reverse link azure_resource to azure_express_route_ports_location--><g id="link_azure_resource_azure_express_route_ports_location"><path codeLine="47" d="M279,496.77 C279,523.64 279,556.12 279,599.15 " fill="none" id="azure_resource-backto-azure_express_route_ports_location" style="stroke:#FFAF37;stroke-width:2.0;"/><polygon fill="none" points="279,478.77,273,496.77,285,496.77,279,478.77" style="stroke:#FFAF37;stroke-width:2.0;"/></g><!--reverse link resource to azure_resource--><g id="link_resource_azure_resource"><path codeLine="48" d="M279,335.84 C279,384.13 279,413.37 279,438.68 " fill="none" id="resource-backto-azure_resource" style="stroke:#FFAF37;stroke-width:2.0;"/><polygon fill="none" points="279,317.84,273,335.84,285,335.84,279,317.84" style="stroke:#FFAF37;stroke-width:2.0;"/></g><!--SRC=[bL9TQzim57tFhn3qBIoGh5lJZ57e0cDxAMFTModYMhfsH6p9N5qdIxVzzybsKcGxRT8t-vwZyt6bbT4ei2Xv9mei4YG_ycjZIo0en2sHsovTxaXSf2cab_C- -DLPFacuWmB5Dymto4P1d_5hPTJQelVYVGHz0RNEo5LMj_9CO7s0q7B4MkRW_IqpcQHYZCBeHNATfdrcN_JYKi_cLpYWET98UyfqEjMpHPzoqkhLti-CU_E4OXOlxSun3c8EB1hMgobhHXHoKFI0lvZn1sXjR2O-HhEVRIQoI9tv_GgqszRi578VstX6GiUx4fU3LhYurkdyAFdxIsHLRqx0KqKeyNT9uTd8G6EKfIFsCdSAs3Wh_ep6uz2W9ep7du8qXNZrR0CcXoH7cO3LMwDvrH1EIqO77Xw3aWhR0yKTzPBSnlX03h_ICp16yB-pqqTMJH6NfaZIXglgk6qWhr0QAxEaR4eOorSVUZx1n5MaC0WTW6WK5f8rehgYnhgUi6cDTCXVVzTbZyoCxgG9rzWT12-MeDJ-2YA71gbAlTzFX1H7V0Qz6R9MqQZw6D3keSNUxJcFeUePRsGokNdRPOnwA_tyTpAPd24nEdhYCFmF]--></g></svg>

<svg xmlns="http://www.w3.org/2000/svg" width="558" height="919" viewBox="0 0 558 919"><rect width="544" height="152.977" x="7" y="599.55" fill="#3D176E" rx="2.5" ry="2.5" style="stroke:#000d19;stroke-width:.5"/><circle cx="120.75" cy="619.444" r="11" fill="#ADD1B2" style="stroke:#181818;stroke-width:1"/><path d="M123.719 625.085q-.578.297-1.219.438-.64.156-1.344.156-2.5 0-3.828-1.64-1.312-1.657-1.312-4.782t1.312-4.781q1.328-1.657 3.828-1.657.703 0 1.344.157.656.156 1.219.453v2.719q-.625-.579-1.219-.844-.594-.281-1.219-.281-1.344 0-2.031 1.078-.687 1.062-.687 3.156t.687 3.172q.688 1.062 2.031 1.062.625 0 1.219-.265.594-.282 1.219-.86z"/><text x="146.25" y="625.33" fill="#D9B8FF" font-family="Helvetica" font-size="17" textLength="298">azure_express_route_ports_location</text><path d="M8 639.339h542" style="stroke:#000d19;stroke-width:.5"/><text x="18" y="661.334" fill="#D9B8FF" font-family="sans-serif" font-size="14" font-weight="bold" textLength="64">address</text><text x="82" y="661.334" fill="#D9B8FF" font-family="sans-serif" font-size="14" textLength="48">: string</text><text x="18" y="687.631" fill="#D9B8FF" font-family="sans-serif" font-size="14" font-weight="bold" textLength="167">available_bandwidths</text><text x="185" y="687.631" fill="#D9B8FF" font-family="sans-serif" font-size="14" textLength="355">: azure_express_route_ports_location_bandwidths[]</text><text x="18" y="713.928" fill="#D9B8FF" font-family="sans-serif" font-size="14" font-weight="bold" textLength="59">contact</text><text x="77" y="713.928" fill="#D9B8FF" font-family="sans-serif" font-size="14" textLength="48">: string</text><text x="18" y="740.225" fill="#D9B8FF" font-family="sans-serif" font-size="14" font-weight="bold" textLength="144">provisioning_state</text><text x="162" y="740.225" fill="#D9B8FF" font-family="sans-serif" font-size="14" textLength="48">: string</text><rect width="446" height="100.383" x="56" y="812.53" fill="#3D176E" rx="2.5" ry="2.5" style="stroke:#000d19;stroke-width:.5"/><circle cx="71" cy="832.424" r="11" fill="#ADD1B2" style="stroke:#181818;stroke-width:1"/><path d="M73.969 838.065q-.578.297-1.219.438-.64.156-1.344.156-2.5 0-3.828-1.64-1.312-1.657-1.312-4.782t1.312-4.781q1.328-1.657 3.828-1.657.703 0 1.344.157.656.156 1.219.453v2.719q-.625-.579-1.219-.844-.594-.281-1.219-.281-1.344 0-2.031 1.078-.687 1.062-.687 3.156t.687 3.172q.688 1.062 2.031 1.062.625 0 1.219-.265.594-.282 1.219-.86z"/><text x="90" y="838.31" fill="#D9B8FF" font-family="Helvetica" font-size="17" textLength="404">azure_express_route_ports_location_bandwidths</text><path d="M57 852.319h444" style="stroke:#000d19;stroke-width:.5"/><text x="67" y="874.314" fill="#D9B8FF" font-family="sans-serif" font-size="14" font-weight="bold" textLength="89">offer_name</text><text x="156" y="874.314" fill="#D9B8FF" font-family="sans-serif" font-size="14" textLength="48">: string</text><text x="67" y="900.611" fill="#D9B8FF" font-family="sans-serif" font-size="14" font-weight="bold" textLength="109">value_in_gbps</text><text x="176" y="900.611" fill="#D9B8FF" font-family="sans-serif" font-size="14" textLength="44">: int64</text><rect width="168" height="39.789" x="195" y="438.76" fill="#3D176E" rx="2.5" ry="2.5" style="stroke:#000d19;stroke-width:.5"/><circle cx="210" cy="458.654" r="11" fill="#ADD1B2" style="stroke:#181818;stroke-width:1"/><path d="M212.969 464.295q-.578.297-1.219.438-.64.156-1.344.156-2.5 0-3.828-1.64-1.312-1.657-1.312-4.782t1.312-4.781q1.328-1.656 3.828-1.656.703 0 1.344.156.656.156 1.219.453v2.719q-.625-.579-1.219-.844-.594-.281-1.219-.281-1.344 0-2.031 1.078-.687 1.062-.687 3.156t.687 3.172q.688 1.062 2.031 1.062.625 0 1.219-.265.594-.281 1.219-.86z"/><text x="229" y="464.54" fill="#D9B8FF" font-family="Helvetica" font-size="17" textLength="126">azure_resource</text><rect width="227" height="310.758" x="165.5" y="7" fill="#3D176E" rx="2.5" ry="2.5" style="stroke:#000d19;stroke-width:.5"/><circle cx="234.25" cy="26.895" r="11" fill="#ADD1B2" style="stroke:#181818;stroke-width:1"/><path d="M237.219 32.535q-.578.297-1.219.438-.64.156-1.344.156-2.5 0-3.828-1.64-1.312-1.657-1.312-4.782t1.312-4.781q1.328-1.656 3.828-1.656.703 0 1.344.156.656.156 1.219.453v2.719q-.625-.578-1.219-.844-.594-.281-1.219-.281-1.344 0-2.031 1.078-.687 1.062-.687 3.156t.687 3.172q.688 1.062 2.031 1.062.625 0 1.219-.265.594-.281 1.219-.86z"/><text x="259.75" y="32.78" fill="#D9B8FF" font-family="Helvetica" font-size="17" textLength="71">resource</text><path d="M166.5 46.789h225" style="stroke:#000d19;stroke-width:.5"/><text x="176.5" y="68.784" fill="#D9B8FF" font-family="sans-serif" font-size="14" font-weight="bold" textLength="29">age</text><text x="205.5" y="68.784" fill="#D9B8FF" font-family="sans-serif" font-size="14" textLength="66">: duration</text><text x="176.5" y="95.081" fill="#D9B8FF" font-family="sans-serif" font-size="14" font-weight="bold" textLength="43">atime</text><text x="219.5" y="95.081" fill="#D9B8FF" font-family="sans-serif" font-size="14" textLength="70">: datetime</text><text x="176.5" y="121.378" fill="#D9B8FF" font-family="sans-serif" font-size="14" font-weight="bold" textLength="43">ctime</text><text x="219.5" y="121.378" fill="#D9B8FF" font-family="sans-serif" font-size="14" textLength="70">: datetime</text><text x="176.5" y="147.675" fill="#D9B8FF" font-family="sans-serif" font-size="14" font-weight="bold" textLength="14">id</text><text x="190.5" y="147.675" fill="#D9B8FF" font-family="sans-serif" font-size="14" textLength="48">: string</text><text x="176.5" y="173.972" fill="#D9B8FF" font-family="sans-serif" font-size="14" font-weight="bold" textLength="33">kind</text><text x="209.5" y="173.972" fill="#D9B8FF" font-family="sans-serif" font-size="14" textLength="48">: string</text><text x="176.5" y="200.269" fill="#D9B8FF" font-family="sans-serif" font-size="14" font-weight="bold" textLength="90">last_access</text><text x="266.5" y="200.269" fill="#D9B8FF" font-family="sans-serif" font-size="14" textLength="66">: duration</text><text x="176.5" y="226.565" fill="#D9B8FF" font-family="sans-serif" font-size="14" font-weight="bold" textLength="90">last_update</text><text x="266.5" y="226.565" fill="#D9B8FF" font-family="sans-serif" font-size="14" textLength="66">: duration</text><text x="176.5" y="252.862" fill="#D9B8FF" font-family="sans-serif" font-size="14" font-weight="bold" textLength="48">mtime</text><text x="224.5" y="252.862" fill="#D9B8FF" font-family="sans-serif" font-size="14" textLength="70">: datetime</text><text x="176.5" y="279.159" fill="#D9B8FF" font-family="sans-serif" font-size="14" font-weight="bold" textLength="43">name</text><text x="219.5" y="279.159" fill="#D9B8FF" font-family="sans-serif" font-size="14" textLength="48">: string</text><text x="176.5" y="305.456" fill="#D9B8FF" font-family="sans-serif" font-size="14" font-weight="bold" textLength="34">tags</text><text x="210.5" y="305.456" fill="#D9B8FF" font-family="sans-serif" font-size="14" textLength="171">: dictionary[string, string]</text><path fill="none" d="M279 752.95v53.27" style="stroke:#ffaf37;stroke-width:2"/><path fill="#FFAF37" d="m279 812.22 4-9-4 4-4-4z" style="stroke:#ffaf37;stroke-width:2"/><path fill="none" d="M279 496.77v102.38m0-120.38-6 18h12zm0-142.93v102.84m0-120.84-6 18h12z" style="stroke:#ffaf37;stroke-width:2"/></svg>
